X:21
T:Star of Munster
M:C|
R:reel
C:Traditional
K:Ador
| cBAc BAGB | AGEF GED2 | EAAB cBcd | eaaf gfed |
cBAc BAGB | AGEF GED2 | EAAB cBcd |[1 edcB A2 AB :|[2 edcB A2 eg |]
|: a2 ab ageg | agab agef | g2 ga gede | geae gede |
a2 ab ageg | agab agef | g2 ge a2 ae |[1 bagf gfeg :|[2 bagf gfed |]

%%newpage
%%scale .65
%%staffsep 30

